Sources/FrostedUI/Resources/Icons.xcassets/message24.imageset/message-24.svg

<svg width="24" height="24" viewBox="0 0 24 24" fill="none" xmlns="http://www.w3.org/2000/svg" data-fui-icon="true">
  <path
    d="M19.25 3C20.7688 3 22 4.23122 22 5.75V16.25C22 17.7688 20.7688 19 19.25 19H15.376C15.3177 19 15.2614 19.0206 15.2168 19.0576L13.1182 20.7959C12.4677 21.3347 11.5254 21.3318 10.8779 20.7891L8.8125 19.0586C8.7675 19.0209 8.71013 19 8.65137 19H4.75C3.23122 19 2 17.7688 2 16.25V5.75C2 4.23122 3.23122 3 4.75 3H19.25ZM4.75 4.5C4.05964 4.5 3.5 5.05964 3.5 5.75V16.25C3.5 16.9404 4.05964 17.5 4.75 17.5H8.65137C9.06246 17.5 9.46129 17.6451 9.77637 17.9092L11.8408 19.6396C11.9331 19.717 12.068 19.7178 12.1611 19.6406L14.2598 17.9023C14.5737 17.6423 14.9686 17.5 15.376 17.5H19.25C19.9404 17.5 20.5 16.9404 20.5 16.25V5.75C20.5 5.05964 19.9404 4.5 19.25 4.5H4.75ZM7.5 9.75C8.19037 9.75 8.75 10.3097 8.75 11C8.75 11.6903 8.19037 12.25 7.5 12.25C6.80963 12.25 6.25 11.6903 6.25 11C6.25 10.3097 6.80963 9.75 7.5 9.75ZM12 9.75C12.6903 9.75 13.25 10.3097 13.25 11C13.25 11.6903 12.6903 12.25 12 12.25C11.3097 12.25 10.75 11.6903 10.75 11C10.75 10.3097 11.3097 9.75 12 9.75ZM16.5 9.75C17.1903 9.75 17.75 10.3097 17.75 11C17.75 11.6903 17.1903 12.25 16.5 12.25C15.8097 12.25 15.25 11.6903 15.25 11C15.25 10.3097 15.8097 9.75 16.5 9.75Z"
    fill="currentColor"
  />
</svg>

<svg xmlns="http://www.w3.org/2000/svg" width="24" height="24" fill="none" data-fui-icon="true" viewBox="0 0 24 24"><path fill="currentColor" d="M19.25 3A2.75 2.75 0 0 1 22 5.75v10.5A2.75 2.75 0 0 1 19.25 19h-3.874a.25.25 0 0 0-.16.058l-2.098 1.738a1.75 1.75 0 0 1-2.24-.007l-2.065-1.73A.25.25 0 0 0 8.65 19H4.75A2.75 2.75 0 0 1 2 16.25V5.75A2.75 2.75 0 0 1 4.75 3zM4.75 4.5c-.69 0-1.25.56-1.25 1.25v10.5c0 .69.56 1.25 1.25 1.25h3.901c.411 0 .81.145 1.125.41l2.065 1.73a.25.25 0 0 0 .32 0l2.099-1.738a1.75 1.75 0 0 1 1.116-.402h3.874c.69 0 1.25-.56 1.25-1.25V5.75c0-.69-.56-1.25-1.25-1.25zM7.5 9.75a1.25 1.25 0 1 1 0 2.5 1.25 1.25 0 0 1 0-2.5m4.5 0a1.25 1.25 0 1 1 0 2.5 1.25 1.25 0 0 1 0-2.5m4.5 0a1.25 1.25 0 1 1 0 2.5 1.25 1.25 0 0 1 0-2.5"/></svg>
